img/practiceYang.svg

<svg style="height: 512px; width: 512px;" xmlns="http://www.w3.org/2000/svg" viewBox="0 0 512 512"><g class="" style="" transform="translate(0,0)"><path d="M256 23C127.424 23 23 127.424 23 256s104.424 233 233 233 233-104.424 233-233S384.576 23 256 23zm-6.094 18.09C128.036 47.807 130.066 256 256 256c125.215 0 127.935 205.872 8.168 214.83-2.71.1-5.432.17-8.168.17-118.848 0-215-96.152-215-215 0-116.81 92.883-211.69 208.906-214.91zM256 103c22.537 0 41 18.463 41 41s-18.463 41-41 41-41-18.463-41-41 18.463-41 41-41zm0 224c-22.537 0-41 18.463-41 41s18.463 41 41 41 41-18.463 41-41-18.463-41-41-41z" fill="#000000" fill-opacity="1" transform="translate(0, 0) scale(1, 1) rotate(360, 256, 256) skewX(0) skewY(0)"></path></g></svg>

<svg style="height: 512px; width: 512px;" xmlns="http://www.w3.org/2000/svg" viewBox="0 0 512 512"><path d="M0 0h512v512H0z" fill="#000" fill-opacity="0"></path><g class="" style="" transform="translate(0,0)"><g transform="translate(0, 0) scale(1, 1) rotate(360, 256, 256) skewX(0) skewY(0)"><path d="M256 23C127.424 23 23 127.424 23 256C23 384.576 127.424 489 256 489C384.576 489 489 384.576 489 256C489 127.424 384.576 23 256 23Z" class="" fill="#000000" fill-opacity="0.01"></path><path d="M249.906 41.09C128.036 47.807 130.066 256 256 256C381.215 256 383.935 461.872 264.168 470.83C261.458 470.93 258.736 471 256 471C137.152 471 41 374.848 41 256C41 139.19 133.883 44.31 249.906 41.09Z" class="selected" fill="#ffffff" fill-opacity="1"></path><path d="M256 103C278.537 103 297 121.463 297 144C297 166.537 278.537 185 256 185C233.463 185 215 166.537 215 144C215 121.463 233.463 103 256 103Z" class="" fill="#000000" fill-opacity="0.01"></path><path d="M256 327C233.463 327 215 345.463 215 368C215 390.537 233.463 409 256 409C278.537 409 297 390.537 297 368C297 345.463 278.537 327 256 327Z" class="" fill="#000000" fill-opacity="1"></path></g></g></svg>
